img_num/1_26.svg

<svg xmlns="http://www.w3.org/2000/svg" viewBox="0 0 365 290"><title>Untitled-4</title><g id="Layer_4" data-name="Layer 4"><path d="M40.43,163.78l84.64-26.61c8.7-3.14,14.51-9.43,14.51-15.71,0-12.34-17.9-20.56-44.74-20.56-16,0-36.76,4.11-52,10.16H40.43V85.67C54.94,78.89,76.7,74.3,94.84,74.3c34.82,0,58,18.86,58,47.16a40.6,40.6,0,0,1-27.81,38.69l-84.64,26.6Zm123.33,61.66H40.43V201.26H163.76Z"/><path d="M213.33,114.2H187.94l42.32-72.55h25.39Zm111.24,56.11c0,32.4-26.36,53.92-65.78,53.92-39.66,0-66-21.52-66-53.92,0-32.89,26.35-54.9,66-54.9C298.21,115.41,324.57,137.42,324.57,170.31Zm-13.3-1.21c0-17.66-21-29.51-52.48-29.51-31.68,0-52.71,11.85-52.71,29.51,0,17.17,21,28.53,52.71,28.53C290.23,197.63,311.27,186.27,311.27,169.1Z"/></g></svg>

<?xml version="1.0" encoding="utf-8"?>
<!-- Generator: Adobe Illustrator 23.0.4, SVG Export Plug-In . SVG Version: 6.00 Build 0)  -->
<svg version="1.1" id="Layer_1" xmlns="http://www.w3.org/2000/svg" xmlns:xlink="http://www.w3.org/1999/xlink" x="0px" y="0px"
	 viewBox="0 0 365 290" style="enable-background:new 0 0 365 290;" xml:space="preserve">
<style type="text/css">
	.st0{stroke:#000000;stroke-width:5;stroke-miterlimit:10;}
</style>
<title>Untitled-4</title>
<g id="Layer_4">
	<path class="st0" d="M40.4,163.8l84.6-26.6c8.7-3.1,14.5-9.4,14.5-15.7c0-12.3-17.9-20.6-44.7-20.6c-16,0-36.8,4.1-52,10.2h-2.4
		V85.7c14.5-6.8,36.3-11.4,54.4-11.4c34.8,0,58,18.9,58,47.2c0.1,17.6-11.2,33.2-27.8,38.7l-84.6,26.6L40.4,163.8z M163.8,225.4
		H40.4v-24.2h123.3L163.8,225.4z"/>
	<path class="st0" d="M213.3,114.2h-25.4l42.3-72.6h25.4L213.3,114.2z M324.6,170.3c0,32.4-26.4,53.9-65.8,53.9
		c-39.7,0-66-21.5-66-53.9c0-32.9,26.4-54.9,66-54.9C298.2,115.4,324.6,137.4,324.6,170.3z M311.3,169.1c0-17.7-21-29.5-52.5-29.5
		c-31.7,0-52.7,11.9-52.7,29.5c0,17.2,21,28.5,52.7,28.5C290.2,197.6,311.3,186.3,311.3,169.1L311.3,169.1z"/>
</g>
</svg>
